X: 30
T: Jerry's Beaver Hat
R: jig
M: 6/8
L: 1/8
K: Dmaj
|:D|DFA d2 e|fdB BAF|ABA dAF|EFE GFE|
DFA d2 e|fdB BAF|ABA dAF|DED D2 :|
|:d|dfa afd|gbg faf|dfa afd|cee ecA|
dfa afd|gbg faf|BdB AFA|1 DED D2 :|2 DED D3 |]
F: https://thesession.org/tunes/319#setting319

